svg/emoji_u1f5a8.svg

<svg width="128" height="128" viewBox="0 0 128 128" fill="none" xmlns="http://www.w3.org/2000/svg">
<path d="M98.27 44.3403H29.73L34.21 16.4603C34.21 14.5603 35.75 13.0103 37.66 13.0103H90.63C92.53 13.0103 94.08 14.5503 94.08 16.4603L98.27 44.3403Z" fill="#757575" style="fill:#757575;fill:color(display-p3 0.4588 0.4588 0.4588);fill-opacity:1;"/>
<path d="M92.9401 41.8999H35.0601L38.8401 18.3499C38.8401 16.7399 40.1401 15.4399 41.7501 15.4399H86.4901C88.1001 15.4399 89.4001 16.7399 89.4001 18.3499L92.9401 41.8999Z" fill="#424242" style="fill:#424242;fill:color(display-p3 0.2588 0.2588 0.2588);fill-opacity:1;"/>
<path d="M94.5401 29.9102H33.57C31.11 29.9102 29.01 31.6802 28.59 34.1002L26.8 44.3802H101.18L99.5101 34.1502C99.1301 31.7002 97.0101 29.9102 94.5401 29.9102Z" fill="#424242" style="fill:#424242;fill:color(display-p3 0.2588 0.2588 0.2588);fill-opacity:1;"/>
<path d="M39.8301 38.74H90.52C90.52 38.74 93.21 20.74 88.74 4.27002H38.05C41.37 19.74 39.8301 38.74 39.8301 38.74Z" fill="url(#paint0_linear_2471_1071)" style=""/>
<path d="M39.01 43.5602L90.06 42.9202L90.8 36.9102H40.17L39.01 43.5602Z" fill="#BDBDBD" style="fill:#BDBDBD;fill:color(display-p3 0.7412 0.7412 0.7412);fill-opacity:1;"/>
<path d="M119.16 90.7803H14.8801C9.28006 90.7803 8.61006 80.5603 8.89006 74.0903C8.96006 72.5703 9.22006 71.0803 9.66006 69.6203L16.5701 46.3703C16.5701 46.3703 18.5001 39.5103 24.6201 39.5103H102.09C106.82 39.5103 108.73 44.8203 108.73 44.8203L117.73 67.8803C118.57 70.0403 119.02 72.3403 119.03 74.6703L119.16 90.7803Z" fill="#CFD8DC" style="fill:#CFD8DC;fill:color(display-p3 0.8118 0.8471 0.8627);fill-opacity:1;"/>
<path d="M110.89 111.17H17.1101C12.5601 111.17 8.87012 107.48 8.87012 102.93V76.05C8.87012 72.55 11.7101 69.71 15.2101 69.71H112.79C116.29 69.71 119.13 72.55 119.13 76.05V102.93C119.13 107.48 115.44 111.17 110.89 111.17Z" fill="#90A4AE" style="fill:#90A4AE;fill:color(display-p3 0.5647 0.6431 0.6824);fill-opacity:1;"/>
<path d="M92.1001 39.5103H36.3901L27.5901 69.7103V76.9703C27.5901 80.5403 30.4901 83.4403 34.0601 83.4403H93.9601C97.5301 83.4403 100.43 80.5403 100.43 76.9703V69.7103L92.1001 39.5103Z" fill="#607D8B" style="fill:#607D8B;fill:color(display-p3 0.3765 0.4902 0.5451);fill-opacity:1;"/>
<path d="M31.52 64.9303L38.05 39.5103H90.48L96.67 65.0103C97.5 68.5703 95.08 69.7103 91.78 69.7103H36.39C33.06 69.7103 30.64 68.5203 31.52 64.9303Z" fill="#90A4AE" style="fill:#90A4AE;fill:color(display-p3 0.5647 0.6431 0.6824);fill-opacity:1;"/>
<path d="M109.93 83.2901C111.835 83.2901 113.38 81.7455 113.38 79.8401C113.38 77.9348 111.835 76.3901 109.93 76.3901C108.025 76.3901 106.48 77.9348 106.48 79.8401C106.48 81.7455 108.025 83.2901 109.93 83.2901Z" fill="#424242" style="fill:#424242;fill:color(display-p3 0.2588 0.2588 0.2588);fill-opacity:1;"/>
<path d="M109.93 82.6998C111.835 82.6998 113.38 81.1552 113.38 79.2498C113.38 77.3444 111.835 75.7998 109.93 75.7998C108.025 75.7998 106.48 77.3444 106.48 79.2498C106.48 81.1552 108.025 82.6998 109.93 82.6998Z" fill="#99D45B" style="fill:#99D45B;fill:color(display-p3 0.6000 0.8314 0.3569);fill-opacity:1;"/>
<path d="M106.24 118.59L98.8699 94.2998H63.9999H29.1299L21.7599 118.59C21.0499 121.19 23.5599 123.72 26.7699 123.72H63.9999H101.24C104.44 123.73 106.96 121.2 106.24 118.59Z" fill="#616161" style="fill:#616161;fill:color(display-p3 0.3804 0.3804 0.3804);fill-opacity:1;"/>
<path d="M96.5001 100.95C96.1301 99.1498 97.5901 98.5998 98.0801 98.4498C99.2301 98.0898 100.18 98.6598 100.18 98.6598L98.9401 94.2998H29.0601L27.8201 98.6598C27.8201 98.6598 28.7701 98.0898 29.9201 98.4498C30.4101 98.5998 31.8701 99.1498 31.5001 100.95C31.1801 102.52 29.9001 108.63 29.9001 108.63C29.3501 111.14 29.0201 113.7 28.5701 116.23C28.5701 117.67 29.8901 118.83 31.5201 118.83H96.4601C98.0901 118.83 99.4101 117.67 99.4101 116.23C98.9701 113.7 98.6301 111.14 98.0801 108.63C98.0901 108.63 96.8201 102.52 96.5001 100.95Z" fill="#212121" style="fill:#212121;fill:color(display-p3 0.1294 0.1294 0.1294);fill-opacity:1;"/>
<path d="M66.9601 85.5002H61.0401C59.6801 85.5002 58.5701 84.4002 58.5701 83.0302V82.6301C58.5701 81.2701 59.6701 80.1602 61.0401 80.1602H66.9601C68.3201 80.1602 69.4301 81.2601 69.4301 82.6301V83.0302C69.4301 84.4002 68.3201 85.5002 66.9601 85.5002Z" fill="#607D8B" style="fill:#607D8B;fill:color(display-p3 0.3765 0.4902 0.5451);fill-opacity:1;"/>
<path d="M93.8701 90.4399H34.1301C31.1901 90.4399 28.8101 92.8199 28.8101 95.7599H99.1801C99.1901 92.8199 96.8001 90.4399 93.8701 90.4399Z" fill="#212121" style="fill:#212121;fill:color(display-p3 0.1294 0.1294 0.1294);fill-opacity:1;"/>
<defs>
<linearGradient id="paint0_linear_2471_1071" x1="64.6842" y1="30.8268" x2="64.6842" y2="2.13712" gradientUnits="userSpaceOnUse">
<stop offset="0.5664" stop-color="#EEEEEE" style="stop-color:#EEEEEE;stop-color:color(display-p3 0.9333 0.9333 0.9333);stop-opacity:1;"/>
<stop offset="1" stop-color="#E0E0E0" style="stop-color:#E0E0E0;stop-color:color(display-p3 0.8784 0.8784 0.8784);stop-opacity:1;"/>
</linearGradient>
</defs>
</svg>

<?xml version="1.0" encoding="utf-8"?>
<!-- Generator: Adobe Illustrator 25.2.3, SVG Export Plug-In . SVG Version: 6.00 Build 0)  -->
<svg version="1.1" id="Layer_1_copy" xmlns="http://www.w3.org/2000/svg" xmlns:xlink="http://www.w3.org/1999/xlink" x="0px"
	 y="0px" viewBox="0 0 128 128" style="enable-background:new 0 0 128 128;" xml:space="preserve">
<g>
	<path style="fill:#757575;" d="M98.27,44.34H29.73l4.48-27.88c0-1.9,1.54-3.45,3.45-3.45h52.97c1.9,0,3.45,1.54,3.45,3.45
		L98.27,44.34z"/>
	<path style="fill:#424242;" d="M92.94,41.9H35.06l3.78-23.55c0-1.61,1.3-2.91,2.91-2.91h44.74c1.61,0,2.91,1.3,2.91,2.91
		L92.94,41.9z"/>
	<path style="fill:#424242;" d="M94.54,29.91H33.57c-2.46,0-4.56,1.77-4.98,4.19l-1.79,10.28h74.38l-1.67-10.23
		C99.13,31.7,97.01,29.91,94.54,29.91z"/>
	<linearGradient id="SVGID_1_" gradientUnits="userSpaceOnUse" x1="64.6842" y1="30.8268" x2="64.6842" y2="2.1371">
		<stop  offset="0.5664" style="stop-color:#EEEEEE"/>
		<stop  offset="1" style="stop-color:#E0E0E0"/>
	</linearGradient>
	<path style="fill:url(#SVGID_1_);" d="M39.83,38.74h50.69c0,0,2.69-18-1.78-34.47H38.05C41.37,19.74,39.83,38.74,39.83,38.74z"/>
	<polygon style="fill:#BDBDBD;" points="39.01,43.56 90.06,42.92 90.8,36.91 40.17,36.91 	"/>
	<path style="fill:#CFD8DC;" d="M119.16,90.78H14.88c-5.6,0-6.27-10.22-5.99-16.69c0.07-1.52,0.33-3.01,0.77-4.47l6.91-23.25
		c0,0,1.93-6.86,8.05-6.86h77.47c4.73,0,6.64,5.31,6.64,5.31l9,23.06c0.84,2.16,1.29,4.46,1.3,6.79L119.16,90.78z"/>
	<path style="fill:#90A4AE;" d="M110.89,111.17H17.11c-4.55,0-8.24-3.69-8.24-8.24V76.05c0-3.5,2.84-6.34,6.34-6.34h97.58
		c3.5,0,6.34,2.84,6.34,6.34v26.88C119.13,107.48,115.44,111.17,110.89,111.17z"/>
	<path style="fill:#607D8B;" d="M92.1,39.51H36.39l-8.8,30.2v7.26c0,3.57,2.9,6.47,6.47,6.47h59.9c3.57,0,6.47-2.9,6.47-6.47v-7.26
		L92.1,39.51z"/>
	<path style="fill:#90A4AE;" d="M31.52,64.93l6.53-25.42h52.43l6.19,25.5c0.83,3.56-1.59,4.7-4.89,4.7H36.39
		C33.06,69.71,30.64,68.52,31.52,64.93z"/>
	<circle style="fill:#424242;" cx="109.93" cy="79.84" r="3.45"/>
	<circle style="fill:#99D45B;" cx="109.93" cy="79.25" r="3.45"/>
	<path style="fill:#616161;" d="M106.24,118.59l-7.37-24.29H64H29.13l-7.37,24.29c-0.71,2.6,1.8,5.13,5.01,5.13H64h37.24
		C104.44,123.73,106.96,121.2,106.24,118.59z"/>
	<path style="fill:#212121;" d="M96.5,100.95c-0.37-1.8,1.09-2.35,1.58-2.5c1.15-0.36,2.1,0.21,2.1,0.21l-1.24-4.36H29.06
		l-1.24,4.36c0,0,0.95-0.57,2.1-0.21c0.49,0.15,1.95,0.7,1.58,2.5c-0.32,1.57-1.6,7.68-1.6,7.68c-0.55,2.51-0.88,5.07-1.33,7.6
		c0,1.44,1.32,2.6,2.95,2.6h64.94c1.63,0,2.95-1.16,2.95-2.6c-0.44-2.53-0.78-5.09-1.33-7.6C98.09,108.63,96.82,102.52,96.5,100.95z
		"/>
	<path style="fill:#BDBDBD;" d="M55.4,106.09c0,0-20.05,7.62,4.29,7.62s34.75-6.67,34.75-6.67l-5.63-5.46l-28.07,2.61L55.4,106.09z"
		/>
	<path style="fill:#FFFFFF;" d="M93.06,97.59H37.07l-4.76,15.85c0,0,15.89,0.26,27.39,0.26s26.07-9.34,26.07-9.34
		s9.51,5.68,8.98,1.46C94.13,101,93.06,97.59,93.06,97.59z"/>
	<polygon style="fill:#BDBDBD;" points="93.49,99.14 92.74,96.14 37.39,96.35 36.62,99.14 	"/>
	<g>
		<g>
			<polygon style="fill:#9E9E9E;" points="81.69,106.72 38.44,106.72 38.13,107.75 79.65,107.75 			"/>
		</g>
		<g>
			<path style="fill:#9E9E9E;" d="M39.75,102.35l-0.31,1.03h50.15c-0.05-0.35-0.1-0.7-0.15-1.03H39.75z"/>
		</g>
		<g>
			<path style="fill:#757575;" d="M88.58,98.13H41.02l-0.31,1.03h48.12C88.74,98.77,88.66,98.43,88.58,98.13z"/>
		</g>
	</g>
	<path style="fill:#607D8B;" d="M66.96,85.5h-5.92c-1.36,0-2.47-1.1-2.47-2.47v-0.4c0-1.36,1.1-2.47,2.47-2.47h5.92
		c1.36,0,2.47,1.1,2.47,2.47v0.4C69.43,84.4,68.32,85.5,66.96,85.5z"/>
	<path style="fill:#212121;" d="M93.87,90.44H34.13c-2.94,0-5.32,2.38-5.32,5.32v0h70.37v0C99.19,92.82,96.8,90.44,93.87,90.44z"/>
</g>
</svg>
